src/icons/solid/communication/assignment.svg

<svg width="24" height="24" viewBox="0 0 24 24" fill="none" xmlns="http://www.w3.org/2000/svg">
<g clip-path="url(#clip0_5089_940)">
<path d="M16.1543 12.1299C16.504 11.93 16.9035 11.8805 17.2832 11.9805C20.5711 12.8705 23 15.9604 23 19.6504C22.9998 20.9502 21.9904 21.9999 20.7314 22H5.89062C4.64157 22 3.62228 20.9502 3.62207 19.6504L3.71777 19.7568C4.20866 20.2715 4.8622 20.4999 5.48047 20.5C5.95017 20.5 6.45016 20.3596 6.87988 20.0596L11.5273 16.8896L11.5566 16.8701C11.8864 16.6201 12.1563 16.2799 12.3262 15.8799L12.3662 15.7803L12.4268 15.5703C12.5267 15.2204 12.536 14.8502 12.4561 14.4902V14.4199L12.3564 14.1602C12.1666 13.6604 11.8172 13.3003 11.4775 13.0703L9.81836 11.9404C10.0481 11.9505 10.2678 12.02 10.4775 12.1299C11.317 12.6099 12.2871 12.8799 13.3164 12.8799C14.3456 12.8798 15.305 12.6098 16.1543 12.1299Z" fill="#3C3B44"/>
<path d="M4.99121 12.4502C4.12176 11.8102 5.14123 10.6802 5.9707 11.2402C6.40739 11.5382 7.04738 11.9765 7.73047 12.4443C8.76705 13.1542 9.90351 13.9316 10.5781 14.3896C10.7279 14.4697 10.8278 14.6401 10.8877 14.79C10.9576 15.1 10.8474 15.3899 10.5977 15.5898L5.9707 18.7402C5.18121 19.3402 4.12178 18.1896 4.99121 17.5596L7.37012 15.9404L7.62988 15.75H1.8291C1.36956 15.7498 1 15.4099 1 15C1 14.5901 1.36956 14.2502 1.8291 14.25H7.62988L7.37012 14.0703C7.14217 13.914 6.77967 13.6683 6.39648 13.4082C5.87261 13.0526 5.30866 12.6697 4.99121 12.4502Z" fill="#3C3B44"/>
<path d="M13.3057 2C15.8539 2 17.9226 4.13975 17.9229 6.76953C17.9229 9.39953 15.8541 11.54 13.3057 11.54C10.7574 11.5399 8.68848 9.39947 8.68848 6.76953C8.68872 4.13981 10.7575 2.0001 13.3057 2Z" fill="#3C3B44"/>
</g>
<defs>
<clipPath id="clip0_5089_940">
<rect width="24" height="24" fill="white"/>
</clipPath>
</defs>
</svg>

<svg xmlns="http://www.w3.org/2000/svg" width="24" height="24" fill="none" viewBox="0 0 24 24"><g fill="currentColor" clip-path="url(#a)"><path d="M16.154 12.13c.35-.2.75-.25 1.13-.15C20.57 12.87 23 15.96 23 19.65c0 1.3-1.01 2.35-2.269 2.35H5.891c-1.25 0-2.269-1.05-2.269-2.35l.096.107c.49.514 1.144.743 1.762.743.47 0 .97-.14 1.4-.44l4.647-3.17.03-.02c.33-.25.6-.59.77-.99l.04-.1.06-.21c.1-.35.109-.72.03-1.08v-.07l-.1-.26c-.19-.5-.54-.86-.88-1.09l-1.659-1.13c.23.01.45.08.66.19a5.7 5.7 0 0 0 2.838.75c1.03 0 1.989-.27 2.838-.75"/><path d="M4.991 12.45c-.87-.64.15-1.77.98-1.21l1.76 1.204c1.036.71 2.173 1.488 2.847 1.946.15.08.25.25.31.4.07.31-.04.6-.29.8L5.97 18.74c-.79.6-1.85-.55-.98-1.18l2.38-1.62.259-.19h-5.8c-.46 0-.83-.34-.83-.75s.37-.75.83-.75h5.8l-.26-.18-.974-.662c-.523-.355-1.087-.738-1.405-.958M13.306 2c2.548 0 4.617 2.14 4.617 4.77s-2.069 4.77-4.617 4.77S8.688 9.4 8.688 6.77 10.758 2 13.306 2"/></g><defs><clipPath id="a"><path fill="currentColor" d="M0 0h24v24H0z"/></clipPath></defs></svg>
